X:71
T: Die Hauptmannstochter
N: Q3101F
O: Osteuropa? (juedisch)
N: Melodievergleich zu Q0101D, anderes Lied.
R: religioes, Synagogen - Weise
M: 3/4
L: 1/4
K: G
D | G2F | GzA | _BAG | =F2z
_B2B | dzd | cdc | _B2z
d2d | c2c | _B2B | A3
A_Bc | d_ed | c_BA | G3

